app/assets/images/payment_icons/gusd.svg

<svg width="38" height="24" viewBox="0 0 38 24" fill="none" xmlns="http://www.w3.org/2000/svg" role="img" aria-labelledby="pi-gusd">
<rect width="38" height="24" fill="white"/>
<path opacity="0.07" d="M35 0H3C1.3 0 0 1.3 0 3V21C0 22.7 1.4 24 3 24H35C36.7 24 38 22.7 38 21V3C38 1.3 36.6 0 35 0Z" fill="black"/>
<path d="M35 1C36.1 1 37 1.9 37 3V21C37 22.1 36.1 23 35 23H3C1.9 23 1 22.1 1 21V3C1 1.9 1.9 1 3 1H35Z" fill="white"/>
<circle cx="19" cy="12" r="8" fill="#00DFFE"/>
<path fill-rule="evenodd" clip-rule="evenodd" d="M20.4739 7.20001C18.7854 7.20001 17.3511 8.49884 17.1704 10.1704C15.4988 10.3511 14.2 11.7854 14.2 13.4739C14.2 15.3092 15.6908 16.8 17.5261 16.8C19.2146 16.8 20.6546 15.5012 20.8296 13.8297C22.5012 13.649 23.8 12.2146 23.8 10.5261C23.8 8.69084 22.3092 7.20001 20.4739 7.20001V7.20001ZM23.0207 10.8988C22.8569 12.0113 21.9647 12.9035 20.8522 13.0673V10.8988H23.0207ZM14.9793 13.1012C15.1431 11.9831 16.0353 11.0908 17.1478 10.9271V13.0955H14.9793V13.1012ZM20.0729 13.8522C19.8866 15.1115 18.808 16.049 17.5261 16.049C16.2442 16.049 15.1656 15.1115 14.9793 13.8522H20.0729ZM20.1012 10.8988V13.0955H17.8988V10.8988H20.1012ZM23.0207 10.1478H17.9271C18.1134 8.88848 19.192 7.95107 20.4739 7.95107C21.7558 7.95107 22.8344 8.88848 23.0207 10.1478V10.1478Z" fill="white"/>
</svg>

<svg width="38" height="24" fill="none" xmlns="http://www.w3.org/2000/svg" aria-labelledby="pi-gusd"><path fill="#fff" d="M0 0h38v24H0z"/><path opacity=".07" d="M35 0H3C1.3 0 0 1.3 0 3v18c0 1.7 1.4 3 3 3h32c1.7 0 3-1.3 3-3V3c0-1.7-1.4-3-3-3Z" fill="#000"/><path d="M35 1c1.1 0 2 .9 2 2v18c0 1.1-.9 2-2 2H3c-1.1 0-2-.9-2-2V3c0-1.1.9-2 2-2h32Z" fill="#fff"/><circle cx="19" cy="12" r="8" fill="#00DFFE"/><path fill-rule="evenodd" clip-rule="evenodd" d="M20.474 7.2a3.345 3.345 0 0 0-3.304 2.97 3.345 3.345 0 0 0-2.97 3.304 3.328 3.328 0 0 0 3.326 3.326 3.34 3.34 0 0 0 3.304-2.97 3.345 3.345 0 0 0 2.97-3.304A3.328 3.328 0 0 0 20.474 7.2Zm2.547 3.699a2.588 2.588 0 0 1-2.169 2.168V10.9h2.169ZM14.979 13.1a2.588 2.588 0 0 1 2.169-2.174v2.168h-2.169v.006Zm5.094.751a2.572 2.572 0 0 1-2.547 2.197 2.572 2.572 0 0 1-2.547-2.197h5.094ZM20.1 10.9v2.197H17.9v-2.197H20.1Zm2.92-.751h-5.094a2.572 2.572 0 0 1 2.547-2.197c1.282 0 2.36.937 2.547 2.197Z" fill="#fff"/></svg>
